X:106
T: Die erzwungene Ehe
N: Q0050D
O: Mitteleuropa, Deutschland / Frankreich, Lothringen
N: Zweite Zeile = Kurzzeile aus Textwiederholung.
R: Ballade, Hochzeit; Schwank
M: 3/4
L: 1/4
K: F
C | FFF | FFG | EED | Cz
C | FFG | Az
A | GGc | BAG | DDG | Fz

